icons/Cloudicons.svg

<svg width="16" height="16" viewBox="0 0 16 16" fill="currentColor" xmlns="http://www.w3.org/2000/svg">
<path d="M9.88721 12.1956H13.0305C14.2605 12.1956 15.2855 11.2343 15.2855 9.99833C15.2855 8.96834 14.8071 8.28168 13.7138 8.07568" stroke="#3D3D3D" stroke-width="0.75" stroke-miterlimit="10" stroke-linecap="round"/>
<path d="M12.9622 7.32024C13.2355 6.15292 12.6205 5.53493 11.7322 5.32893C11.4589 5.26026 11.0489 5.26026 10.7072 5.32893C10.2289 3.95561 8.7256 3.20029 7.35896 3.61228C6.53897 3.88695 5.85565 4.50494 5.58232 5.32893C3.66901 4.7796 1.68738 5.87826 1.14072 7.66357C0.594062 9.51755 1.68738 11.4402 3.60068 11.9895C3.94234 12.0582 4.284 12.1269 4.62567 12.1269H10.2972" stroke="#3D3D3D" stroke-width="0.75" stroke-miterlimit="10" stroke-linecap="round"/>
</svg>

<svg xmlns="http://www.w3.org/2000/svg" width="16" height="16" fill="currentColor" class="si si-Cloudicons" viewBox="0 0 16 16">
  <path stroke="#3D3D3D" stroke-linecap="round" stroke-miterlimit="10" stroke-width=".75" d="M9.887 12.196h3.143c1.23 0 2.256-.962 2.256-2.198 0-1.03-.479-1.716-1.572-1.922"/>
  <path stroke="#3D3D3D" stroke-linecap="round" stroke-miterlimit="10" stroke-width=".75" d="M12.962 7.32c.274-1.167-.341-1.785-1.23-1.991-.273-.069-.683-.069-1.025 0C10.23 3.956 8.726 3.2 7.36 3.612c-.82.275-1.503.893-1.777 1.717-1.913-.55-3.895.55-4.441 2.335-.547 1.854.546 3.776 2.46 4.326.341.068.683.137 1.025.137h5.671"/>
</svg>
